src/assets/outline/Money2.svg

<?xml version="1.0" encoding="UTF-8"?>
<svg width="24" height="24" viewBox="0 0 24 24" xmlns="http://www.w3.org/2000/svg">
 <path d="m17 21.25h-10c-3.65 0-5.75-2.1-5.75-5.75v-7c0-3.65 2.1-5.75 5.75-5.75h10c3.65 0 5.75 2.1 5.75 5.75v7c0 3.65-2.1 5.75-5.75 5.75zm-10-17c-2.86 0-4.25 1.39-4.25 4.25v7c0 2.86 1.39 4.25 4.25 4.25h10c2.86 0 4.25-1.39 4.25-4.25v-7c0-2.86-1.39-4.25-4.25-4.25h-10z"/>
 <path d="m12 15.75c-2.07 0-3.75-1.68-3.75-3.75s1.68-3.75 3.75-3.75 3.75 1.68 3.75 3.75-1.68 3.75-3.75 3.75zm0-6c-1.24 0-2.25 1.01-2.25 2.25s1.01 2.25 2.25 2.25 2.25-1.01 2.25-2.25-1.01-2.25-2.25-2.25z"/>
 <path d="m3 9.75h-1c-0.41 0-0.75-0.34-0.75-0.75s0.34-0.75 0.75-0.75h1c2.58 0 3.25-0.67 3.25-3.25v-1c0-0.41 0.34-0.75 0.75-0.75s0.75 0.34 0.75 0.75v1c0 3.42-1.33 4.75-4.75 4.75z"/>
 <path d="m22 9.75h-1c-3.42 0-4.75-1.33-4.75-4.75v-1c0-0.41 0.34-0.75 0.75-0.75s0.75 0.34 0.75 0.75v1c0 2.58 0.67 3.25 3.25 3.25h1c0.41 0 0.75 0.34 0.75 0.75s-0.34 0.75-0.75 0.75z"/>
 <path d="m7 20.75c-0.41 0-0.75-0.34-0.75-0.75v-1c0-2.58-0.67-3.25-3.25-3.25h-1c-0.41 0-0.75-0.34-0.75-0.75s0.34-0.75 0.75-0.75h1c3.42 0 4.75 1.33 4.75 4.75v1c0 0.41-0.34 0.75-0.75 0.75z"/>
 <path d="m17 20.75c-0.41 0-0.75-0.34-0.75-0.75v-1c0-3.42 1.33-4.75 4.75-4.75h1c0.41 0 0.75 0.34 0.75 0.75s-0.34 0.75-0.75 0.75h-1c-2.58 0-3.25 0.67-3.25 3.25v1c0 0.41-0.34 0.75-0.75 0.75z"/>
</svg>

<svg width="24" height="24" viewBox="0 0 24 24"  xmlns="http://www.w3.org/2000/svg">
<path d="M17 21.25H7C3.35 21.25 1.25 19.15 1.25 15.5V8.5C1.25 4.85 3.35 2.75 7 2.75H17C20.65 2.75 22.75 4.85 22.75 8.5V15.5C22.75 19.15 20.65 21.25 17 21.25ZM7 4.25C4.14 4.25 2.75 5.64 2.75 8.5V15.5C2.75 18.36 4.14 19.75 7 19.75H17C19.86 19.75 21.25 18.36 21.25 15.5V8.5C21.25 5.64 19.86 4.25 17 4.25H7Z" />
<path d="M12 15.75C9.93 15.75 8.25 14.07 8.25 12C8.25 9.93 9.93 8.25 12 8.25C14.07 8.25 15.75 9.93 15.75 12C15.75 14.07 14.07 15.75 12 15.75ZM12 9.75C10.76 9.75 9.75 10.76 9.75 12C9.75 13.24 10.76 14.25 12 14.25C13.24 14.25 14.25 13.24 14.25 12C14.25 10.76 13.24 9.75 12 9.75Z" />
<path d="M3 9.75H2C1.59 9.75 1.25 9.41 1.25 9C1.25 8.59 1.59 8.25 2 8.25H3C5.58 8.25 6.25 7.58 6.25 5V4C6.25 3.59 6.59 3.25 7 3.25C7.41 3.25 7.75 3.59 7.75 4V5C7.75 8.42 6.42 9.75 3 9.75Z" />
<path d="M22 9.75H21C17.58 9.75 16.25 8.42 16.25 5V4C16.25 3.59 16.59 3.25 17 3.25C17.41 3.25 17.75 3.59 17.75 4V5C17.75 7.58 18.42 8.25 21 8.25H22C22.41 8.25 22.75 8.59 22.75 9C22.75 9.41 22.41 9.75 22 9.75Z" />
<path d="M7 20.75C6.59 20.75 6.25 20.41 6.25 20V19C6.25 16.42 5.58 15.75 3 15.75H2C1.59 15.75 1.25 15.41 1.25 15C1.25 14.59 1.59 14.25 2 14.25H3C6.42 14.25 7.75 15.58 7.75 19V20C7.75 20.41 7.41 20.75 7 20.75Z" />
<path d="M17 20.75C16.59 20.75 16.25 20.41 16.25 20V19C16.25 15.58 17.58 14.25 21 14.25H22C22.41 14.25 22.75 14.59 22.75 15C22.75 15.41 22.41 15.75 22 15.75H21C18.42 15.75 17.75 16.42 17.75 19V20C17.75 20.41 17.41 20.75 17 20.75Z" />
</svg>
